X:344 b
T:Polska
T:efter Pelle Fors
Z:Björn Ek 2009-01-12
R:Polska
O:Jonsberg, Östergötland
S:efter Carl August Månsson
B:Svenska Låtar Östergötland
U:o +open+
M:3/4
D:Björnlert, Löfberg, Pekkari - Mikaelidansen
N:[[http://www.smus.se/earkiv/fmk/browsevol.php?lang=sw&by=katalogid&katalogid=%D6g+4&bildnr=00027|Här finns Olof Anderssons orginaluppteckning av låten]]
L:1/16
M:none
K:Am clef=none
%
"@-20,30 Stämn."[A,EAe]0 \
%%staffbreak
[K:Am clef=treble] \
[M:3/4]\
%
|:oa4 ob4 oe3e|(ga)g^f d2d2 e3B|(cd)cB (A^F)AB (cd)cB|A2a2 (a^g)bg e4|
oa4 ob4 oe3e|(ga)g^f d2d2 e3B|(cd)cB (A^F)AB (cd)cB|{cdcd}c2BA ^G2A2 A4:|
%
|:(D^F)AB (cd)cB (AB)cd|e2a2 (a^g)bg (ag)^fg|(e2^g2) (a2b2) (b2c'2)|(c'2a2) (ab)a^g (ag)^fg|
(D^F)AB (cd)cB (AB)cd|e2a2 (a^g)bg (ag)^fg|(e2^g2) (a2b2) (b2c'2)|(c'2a2) (ab)a^g (ag)^fg|
(ec)eg (^fd)fd (ec)ec|(ec)eg (^fd)fd (ec)ec|(cd)cB (AB)cd (ef)ed|{cd}c2BA ^F2G2 G4:|
%

(:musicend:)
(:music:)
